X:1
T:Title
%%score { 1 | ( 2 3 ) }
L:1/8
M:4/4
K:Bb
V:1 treble nm="Grand Piano"
V:2 bass 
V:3 bass 
V:1
 z4 z2[Q:1/4=100] [B,D][CE] | [DF]2 [DF]2 [DF][Fd][Fc][FB] | [EG]2 [GB]2 [Gc][GB][FA][EG] | %3
 [DF] [DF]3 [EB][DB] [Fd]2 |[M:3/4] [Ec]6 |[M:1/4] [B,D][CE] | %6
[M:4/4] [DF]2 [DF]2 [DF][Fd][Fc][FB] | [EG]2 [GB]2 [Gc][GB][FA]G | F B3 BAGA |[M:3/4] [DB]6 | %10
[M:1/4] [DB]2 |[M:4/4] [B,GB] [B,GB]3 [B,GB][B,GB][B,FA][B,EG] | [B,DF]6 [B,DF][B,DF] | %13
 [=EB][EB][EB][EB] [Ec]2 [Ed]2 |[M:3/4] [Ec]6 |[M:1/4] [B,D][CE] | %16
[M:4/4] [DF]2 [DF]2 [DF][Fd][Fc][FB] | [EG]2 [GB]2 [Gc][GB][FA]G | F B3 BAGA | %19
[M:7/4] [DB]6 z2 z2 z4 |] %20
V:2
 z4 z2 [B,,F,][B,,F,] | [B,,B,]2 [B,,B,]2 [B,,B,][B,,B,][C,A,][D,B,] | %2
 [E,B,]2 [E,B,]2 [E,E][E,E][E,B,][E,B,] | [B,,B,] [B,,B,]3 [B,,B,][B,,B,] [B,,B,]2 | %4
[M:3/4] [F,A,]6 |[M:1/4] [B,,F,][B,,F,] |[M:4/4] [B,,B,]2 [B,,B,]2 [B,,B,][B,,B,][C,A,][D,B,] | %7
 [E,B,]2 [E,B,]2 [E,E][E,E] z E | [F,B,D] [F,B,D]3 [F,CD][F,CE][F,CE][F,CE] |[M:3/4] [B,,B,]6 | %10
[M:1/4] [B,,B,]2 |[M:4/4] E, E,3 E,E,E,E, | B,,6 A,,B,, | [C,G,][C,G,][C,G,][C,G,] [C,C]2 [C,B,]2 | %14
[M:3/4] [F,A,]6 |[M:1/4] [B,,F,][B,,F,] |[M:4/4] [B,,B,]2 [B,,B,]2 [B,,B,][B,,B,][C,A,][D,B,] | %17
 [E,B,]2 [E,B,]2 [E,E][E,E] z E | [F,B,D] [F,B,D]3 [F,CD][F,CE][F,CE][F,CE] | %19
[M:7/4] [B,,B,]6 z2 z2 z4 |] %20
V:3
 x8 | x8 | x8 | x8 |[M:3/4] x6 |[M:1/4] x2 |[M:4/4] x8 | z4 z2 [E,B,]2 | x8 |[M:3/4] x6 | %10
[M:1/4] x2 |[M:4/4] x8 | x8 | x8 |[M:3/4] x6 |[M:1/4] x2 |[M:4/4] x8 | z4 z2 [E,B,]2 | x8 | %19
[M:7/4] x14 |] %20

